svgs/nature/u1F40B.layer4.svg

<svg xmlns="http://www.w3.org/2000/svg" viewBox="0 0 512 512" enable-background="new 0 0 512 512"><path fill="#D6D3C5" d="M85.928 216.42l-6.395 20.516-.314-.078c-.746-.18-1.488-.356-2.23-.526l-.735-.167c-.332-.075-.662-.144-.994-.217l6.39-20.494c1.435.305 2.863.627 4.277.967zm-20.656-3.484l-6.344 20.352c.304.032.607.06.913.096.275.03.55.062.824.095.68.08 1.362.162 2.048.253l.63.087 6.362-20.405c-1.485-.188-2.963-.348-4.43-.48zm35.57 7.82c-1.16-.4-2.35-.79-3.56-1.174l-6.408 20.555c.79.252 1.58.512 2.37.776.183.06.365.12.547.182.41.14.82.284 1.23.426l6.41-20.556c-.196-.068-.39-.14-.587-.207zm-52.37-7.783l-6.14 19.704c.135-.006.27-.012.406-.016.584-.02 1.172-.034 1.764-.045.27-.005.542-.007.813-.01.537-.004 1.076-.006 1.618-.003l6.233-19.996c-1.605.07-3.173.19-4.693.37zm116.923 63.14l-3.04 9.755c.296.362.598.72.89 1.087l.046.06c.8 1.008 1.573 2.032 2.33 3.064l2.46-7.89c-.864-2.092-1.757-4.122-2.684-6.08zm-8.388-14.818c-1.04-1.538-2.11-3.005-3.195-4.44l-4.766 15.29c1.214 1.066 2.395 2.16 3.56 3.266l4.4-14.114zm-13.148-15.65c-1.17-1.123-2.35-2.216-3.554-3.258l-5.89 18.56c1.267.85 2.524 1.71 3.76 2.595l5.682-17.898zM28.85 222.072l-3.605 11.563c-.004.504.003 1.015.028 1.54.354-.098.707-.195 1.066-.288.227-.06.455-.12.687-.177.483-.118.973-.23 1.467-.34.247-.055.496-.108.746-.16.143-.03.288-.056.43-.085l5.387-17.28c-2.495 1.365-4.595 3.094-6.208 5.228zm101.375 12.692c-1.262-.833-2.536-1.634-3.822-2.404l-6.37 20.013c1.313.694 2.614 1.41 3.907 2.138l6.285-19.744zm-14.108-7.87c-1.33-.625-2.668-1.227-4.013-1.805l-6.5 20.477c1.35.564 2.694 1.145 4.033 1.744l6.48-20.416z"/></svg>

<?xml version="1.0" encoding="iso-8859-1"?>
<!-- Generator: Adobe Illustrator 18.1.0, SVG Export Plug-In . SVG Version: 6.00 Build 0)  -->
<!DOCTYPE svg PUBLIC "-//W3C//DTD SVG 1.1//EN" "http://www.w3.org/Graphics/SVG/1.1/DTD/svg11.dtd">
<svg version="1.1" xmlns="http://www.w3.org/2000/svg" xmlns:xlink="http://www.w3.org/1999/xlink" x="0px" y="0px"
	 viewBox="0 0 512 512" enable-background="new 0 0 512 512" xml:space="preserve">
<g id="Layer_5">
	<path fill="#D6D3C5" d="M85.928,216.421l-6.395,20.515c-0.105-0.026-0.209-0.052-0.314-0.078c-0.744-0.181-1.486-0.356-2.227-0.526
		c-0.246-0.056-0.491-0.112-0.736-0.167c-0.332-0.075-0.662-0.144-0.994-0.217l6.388-20.494
		C83.086,215.759,84.514,216.081,85.928,216.421z M65.272,212.936l-6.344,20.352c0.304,0.032,0.607,0.061,0.913,0.096
		c0.273,0.031,0.547,0.062,0.822,0.095c0.68,0.08,1.362,0.164,2.048,0.255c0.209,0.028,0.42,0.058,0.63,0.087l6.361-20.406
		C68.217,213.227,66.739,213.067,65.272,212.936z M100.842,220.756c-1.16-0.399-2.35-0.79-3.561-1.174l-6.407,20.555
		c0.79,0.252,1.581,0.512,2.371,0.776c0.182,0.061,0.364,0.121,0.546,0.182c0.41,0.139,0.82,0.284,1.23,0.426l6.408-20.558
		C101.233,220.895,101.038,220.823,100.842,220.756z M48.473,212.973l-6.142,19.704c0.136-0.006,0.271-0.012,0.407-0.016
		c0.584-0.021,1.172-0.036,1.764-0.047c0.27-0.005,0.542-0.007,0.813-0.009c0.537-0.005,1.076-0.007,1.618-0.004l6.233-19.997
		C51.561,212.674,49.993,212.795,48.473,212.973z M165.395,276.112l-3.041,9.756c0.297,0.362,0.599,0.721,0.89,1.087
		c0.016,0.02,0.031,0.041,0.047,0.061c0.8,1.007,1.571,2.031,2.329,3.063l2.458-7.887
		C167.215,280.099,166.322,278.069,165.395,276.112z M157.007,261.295c-1.039-1.538-2.109-3.005-3.195-4.439l-4.766,15.288
		c1.214,1.067,2.395,2.161,3.56,3.267L157.007,261.295z M143.859,245.644c-1.169-1.122-2.35-2.215-3.552-3.257l-5.891,18.561
		c1.268,0.849,2.525,1.71,3.762,2.594L143.859,245.644z M28.849,222.073l-3.604,11.563c-0.004,0.504,0.003,1.015,0.028,1.54
		c0.354-0.098,0.707-0.195,1.066-0.288c0.229-0.06,0.457-0.12,0.689-0.177c0.483-0.119,0.973-0.232,1.467-0.341
		c0.247-0.055,0.496-0.108,0.746-0.16c0.142-0.03,0.287-0.056,0.43-0.085l5.386-17.28C32.562,218.21,30.462,219.939,28.849,222.073z
		 M130.225,234.765c-1.262-0.833-2.536-1.634-3.822-2.404l-6.369,20.012c1.312,0.694,2.613,1.409,3.906,2.138L130.225,234.765z
		 M116.117,226.895c-1.33-0.625-2.668-1.227-4.013-1.805l-6.499,20.478c1.349,0.564,2.693,1.145,4.032,1.744L116.117,226.895z"/>
</g>
<g id="Layer_1">
</g>
</svg>
